X:1
T:Lux Mundi, 76.76 D
T:Arthur Seymour Sullivan, 1872
T:Lux Mundi, 76.76 D
T:Public Domain
C:Arthur Seymour Sullivan, 1872
Z:Public Domain
%%score ( 1 2 ) ( 3 4 )
L:1/8
M:4/4
K:Eb
V:1 treble 
V:2 treble 
V:3 bass 
V:4 bass 
V:1
 [EG]2 | [EG]2 ([DF]E) [EG]2 ([DF]E) | ([DB]2 [DB]2) [DF]2 [DG]2 | [CE]2 [B,D]2 [A,C]2 [EG]2 | %4
 [DF]6 [DB]2 | [EB]2 [Ec]2 [Ee]2 [Fd]2 | ([Gc]2 [Fd]2) [Ee]2 [Fd]2 | [_Gc]2 [GB]2 [F=A]3 [FB] | %8
 [FB]6 [FB]2 | [FB]2 (AG) [FB]2 (AG) | [EA]4 [=EA]2 [EG]2 | (F=E) [CF]2 [EG]2 C2 | [FA]6 F2 | %13
 [EG]2 ([DF]E) [EG]2 ([DF]E) | [DB]4 [DF]2 [DG]2 | [CE]2 [B,D]2 [A,C]2 [EG]2 | ([DF]4 E2) |] %17
V:2
 x2 | x3 E x2 E x | x8 | x8 | x8 | x8 | x8 | x8 | x8 | x2 =E2 x E2 x | x8 | C2 x3 C2 x | x6 F2 | %13
 x3 E x2 E x | x8 | x8 | x4 E2 |] %17
V:3
 [E,B,]2 | [E,B,]2 (A,G,) [E,B,]2 (A,G,) | ([B,,A,]2 [B,,A,]2) [B,,A,]2 [B,,A,]2 | %3
 [C,G,]2 [G,,B,]2 [A,,E,]2 (F,G,) | [B,,A,]6 [B,,A,]2 | [E,G,]2 [E,G,]2 [G,B,]2 [F,B,]2 | %6
 ([E,B,]2 [F,B,]2) [G,B,]2 [F,B,]2 | [E,B,]2 (CD) [F,E]3 [F,E] | [B,,D]6 [A,D]2 | %9
 [G,_D]2 (CB,) [G,D]2 (CB,) | [G,_D]4 [C,C]2 [C,B,]2 | (A,G,) [C,A,]2 [C,B,]2 [C,C]2 | %12
 [F,C]6 [D,B,]2 | [E,B,]2 (A,G,) [E,B,]2 (A,G,) | [B,,A,]4 [B,,A,]2 [B,,A,]2 | %15
 [C,G,]2 [G,,B,]2 [A,,E,]2 F,G, | ([B,,A,]4 [E,G,]2) |] %17
V:4
 x2 | x2 E,2 x E,2 x | x8 | x6 F,,2 | x8 | x8 | x8 | x2 E,2 x4 | x8 | x2 C,2 x C,2 x | x8 | %11
 C,2 x6 | x8 | x2 E,2 x E,2 x | x8 | x6 F,,2 | x6 |] %17

